X:18739
T:White petticoat, The
R:Jig
O:Ireland
M:6/8
K:Em
B |\
Bed cBA | GFE B,EG | FBB ccc | eBB cBA |\
Bed cBA | GFE B,EG | FBB cBA | GEE E2 :|
|: g |\
gec Gce | ggg gec | cBA EAc | Bee eBG |\
FBB GGG | FBA GFE | B,EG cBA | GEE E2 :|


